X: 31974
T: Pedaling Patterns
R: barndance
M: 4/4
K: Bdorian
|:FB,~B,2 CEAG|FB,B,A B3c|dcBd cAGA|FGAF B2AG|
FB,~B,2 CEAG|FB,B,A B3c|dcBd cAGA|1 FGAF B2AG:|2 FGAF BABc||
d3e feaf|eccc FECA,|B,FFE FABc|dfec dcBc|
dcBc bBBB|cAGA FECA,|B,CDE FABc|dfec dcBc|
df~f2 dfaf|eccc FECA,|B,FFE FABc|dfec dcBc|
dBFB dBGB|cAGA FECA,|B,CDE FABc|dfec dBAG||

